X:1
T:Title
%%score { ( 1 2 5 ) | ( 3 4 ) }
L:1/8
M:4/4
K:G
V:1 treble nm="Grand Piano"
V:2 treble 
V:5 treble 
V:3 treble 
V:4 treble 
V:1
 z4 z2[Q:1/4=100] dc | B2 d2 [DFA]2 [^DFB]2 | [EG]2 E2 D2 GA | B2 B2 c2 B2 | %4
[M:3/4] A2- [GA-]2 [FA]2 |[M:1/4] dc |[M:4/4] B2 d2 [DFA]2 [^DFB]2 | %7
 [EG]2 [G,CE]2 [B,D]2 [B,DG][DFA] | [GB]4 z4 |[M:3/4] [B,DG]6 |[M:1/4] [DGB]2 | %11
[M:4/4] [FA]2 [FA]>[GB] [Ac]2 [FA]2 | z2 z c [DGd]2 [DB]-[D=FB] | A2 d>d [EGd]2 [EG^c]2 | %14
[M:3/4] [Dd]2- [D-Gd-]2 [DAd]2 |[M:1/4] D2 |[M:4/4] G2 G2 B2 GG |[M:9/8] A2 B- B/B/ c2- c e2 | %18
[M:4/4] d2 G[EGc] [DGB]2 [CFA]2 |[M:3/4] G6 |] %20
V:2
 z4 z2 F2 | x8 | x8 | x8 |[M:3/4] F2 z2 z2 |[M:1/4] F2 |[M:4/4] x8 | x8 | D2 z c [DGB]2 [CFA]2 | %9
[M:3/4] x6 |[M:1/4] x2 |[M:4/4] x8 | [GB]4 z2 .G2 | x8 |[M:3/4] F2 z2 z2 |[M:1/4] x2 |[M:4/4] x8 | %17
[M:9/8] x9 |[M:4/4] x8 |[M:3/4] B,2 E2 D2 |] %20
V:3
 z4 z2 [D,D]2 | [G,DG]2 [G,B,G]2[K:bass] D,2 B,,2 | z4 z2[K:treble] .[B,D]2 | %3
 [G,DG]2 [G,DG]2 [A,DF]2 [G,DG]2 |[M:3/4][K:bass] [D,D]2 [E,^C]2 [D,D]2 |[M:1/4] [D,D]2 | %6
[M:4/4][K:treble] [G,DG]2 [G,B,G]2[K:bass] D,2 B,,2 | C,2 C,2 G,2 G,D, | G,2 z G D,2 D,2 | %9
[M:3/4] G,6 |[M:1/4] G,2 |[M:4/4] [D,D]2 [D,D]>[D,D] [D,D]2 [D,D]2 | %12
 [G,D]2 z[K:treble] G B,2 G,^G, | [A,DF]2 F>F[K:bass] A,2 A,2 |[M:3/4] D,2 E,2 F,2 | %15
[M:1/4] [D,C]2 |[M:4/4][K:treble] [G,B,D]2 [G,B,D]2 [G,DF]2 [G,B,D][G,B,D] | %17
[M:9/8] [CE]2 [B,E^G]- [B,EG]/[B,EG]/ [A,EA]2- [A,EA] [_B,C=G]2 | %18
[M:4/4] [B,DG]2[K:bass] [E,B,]C, D,2 D,2 |[M:3/4] z2 C2 B,2 |] %20
V:4
 x8 | x4[K:bass] x4 | C,2 [C,G,C]2 [G,B,]2[K:treble] G,-[G,CF] | x8 |[M:3/4][K:bass] x6 | %5
[M:1/4] x2 |[M:4/4][K:treble] x4[K:bass] x4 | x8 | z2 C,2 z4 |[M:3/4] x6 |[M:1/4] x2 |[M:4/4] x8 | %12
 z2 A,2[K:treble] z4 | z2 [A,D]2[K:bass] z4 |[M:3/4] x6 |[M:1/4] x2 |[M:4/4][K:treble] x8 | %17
[M:9/8] x9 |[M:4/4] x2[K:bass] x6 |[M:3/4] G,6 |] %20
V:5
 x8 | x8 | x8 | x8 |[M:3/4] x6 |[M:1/4] x2 |[M:4/4] x8 | x8 | z2 E2 z4 |[M:3/4] x6 |[M:1/4] x2 | %11
[M:4/4] x8 | z2 D2 z4 | x8 |[M:3/4] x6 |[M:1/4] x2 |[M:4/4] x8 |[M:9/8] x9 |[M:4/4] x8 | %19
[M:3/4] x6 |] %20

